X:1
T:Title
L:1/8
Q:1/4=124
M:6/4
K:F
V:1 treble nm="Church Organ, Staff"
V:1
 A4 G2 B4 A2 | c4 c2 =B4 _B2 | A4 A2 B4 D2 | E2 F2 ^F2 G4 _A2 | A4 G2 B4 A2 | d2 e2 d2 d4 ^c2 | %6
w: By~E.~Pettman * * *||||||
 d4 A2 c4 B2 | A4 G2 c6 | F2 G2 F2 B4 A2 | G2 D2 E2 F6 |] %10
w: ||||

